X:1
T:James Gibb editions
T:Would you gain the best in life - Barnby
%%score [ ( 1 2 3 ) ( 4 5 6 ) ]
L:1/8
Q:1/4=100
M:4/4
K:Eb
V:1 treble nm="Midi_74"
V:2 treble 
V:3 treble 
V:4 bass nm="Midi_74"
V:5 bass 
V:6 bass 
V:1
"^in march time""^Christopher Ruby Blackall\n(1830-1924)""^Would you gain the best in life""^Joseph Barnby\n(1838-96)""^7. 7. 7. 5. D." G2 G2 E2 G2 | %1
 B3 c B4 || B2 e2 d2 c2 | B2 G2 F4 || G2 G2 E2 G2 | B3 c (B2 c2) || d2 B2 F2 c2 | B6 z2 || %8
[M:4/4] F2 F2 F2 EF | G2 B2 B4- | F2 F2 F2 EF | G2 B2 B4 || c2 c2 B2 AB | c2 e2 e4 || %14
 EF GA B2 B,2 | E6 z2 || E4 E4 |] x8 | %18
V:2
 E2 E2 E2 E2 | D2 D2 D4 || E2 E2 E2 E2 | E2 E2 D4 || E2 E2 E2 E2 | D2 D2 (E2 G2) || F2 F2 F2 E2 | %7
 D6 z2 ||[M:4/4] B,2 B,2 B,2 B,2 | B,2 E2 E4 | F2 D2 B,2 B,2 | B,2 E2 E4 || E2 E2 E2 E2 | %13
 E2 E2 E4 || EF GA B2 x2 | B,2 x6 || E6 z2 |] C4 B,4 | %18
V:3
 x8 | x8 || x8 | x8 || x8 | x8 || x8 | x8 ||[M:4/4] x8 | x8 | x8 | x8 || x8 | x2 C2 C4 || %14
 B,2 x2 x2 D2 | B,6 x2 || x8 |] x8 | %18
V:4
 B,2 B,2 B,2 B,2 | A,2 A,2 A,4 || B,2 G,2 A,2 A,2 | G,2 B,2 B,4 || B,2 B,2 B,2 B,2 | %5
 A,2 B,2 (G,2 B,2) || !>!B,C !>!DE !>!F2 !>!=A,2 | !>!B,6 z2 ||[M:4/4] A,2 A,2 A,2 A,2 | %9
 G,2 G,2 G,4 | %10
"^1 Would you gain the best in life?\nWin the prize ‘mid all the strife?\nHold your place thro’ troubles rife?\nWith the right keep step!\nKnow the world is watching you;\nBe sincere in all you do;\nWith the good, the pure, and true,\nEver firm keep step!\n\n2 Life is more than idle play;\nIt will quickly pass away;\nUse aright each golden day;\nWith the good keep step!\nThere are earnest pressing needs,\nFilled alone by purest deeds;\nHappy he the call who heeds—\nWith the true keep step! \n\n3 Look beyond the present hour;\nNever yield to Satan’s power;\nTho’ above the clouds may lower,\nWith the truth keep step!\nOnward press! nor, on the way,\nLoiter once or waste the day;\nGod and truth and right all say,\nStrong in faith, keep step!" A,2 A,2 A,2 A,2 | %11
 G,2 G,2 _D4 || C2 C2 _D2 D2 | C2 E,2 E,4 || E,F, G,A, B,2 B,2 | E,6 z2 || A,4 G,4 |] x8 | %18
V:5
 E,2 B,,2 G,2 E,2 | F,2 B,,2 (F,2 A,2) || G,2 E,2 A,2 A,,2 | E,2 G,2 B,4 || E,2 B,,2 G,2 E,2 | %5
 F,2 B,,2 G,2 E,2 || F,2 F,2 F,2 F,2 | B,6 z2 ||[M:4/4] D,2 B,,2 D,2 B,,2 | E,2 B,,2 (G,2 B,,2) | %10
 D,2 B,,2 D,2 B,,2 | E,2 B,,2 (G,2 E,2) || A,2 E,2 G,2 E,2 | A,2 E,2 E,4 || E,F, G,A, B,2 x2 | %15
 B,,2 x6 || E,6 z2 |] A,,4 E,4 | %18
V:6
 x8 | x8 || x8 | x8 || x8 | x8 || x8 | x8 ||[M:4/4] x8 | x8 | x8 | x8 || x8 | x2 A,,2 [=A,,F,]4 || %14
 [B,,B,] x x2 x2 [F,A,]2 | G,6 x2 || x8 |] x8 | %18

